svg/media/danmaku_on_line.svg

<svg xmlns="http://www.w3.org/2000/svg" width="24" height="24" viewBox="0 0 24 24"><g fill="none"><path d="M24,0 L24,24 L0,24 L0,0 L24,0 Z M12.5935,23.2578 L12.5819,23.2595 L12.5109,23.295 L12.4919,23.2987 L12.4767,23.295 L12.4057,23.2595 C12.3958,23.2564 12.387,23.259 12.3821,23.2649 L12.378,23.2758 L12.3609,23.7031 L12.3659,23.7235 L12.3769,23.7357 L12.4805,23.8097 L12.4953,23.8136 L12.5071,23.8097 L12.6107,23.7357 L12.6233,23.7197 L12.6267,23.7031 L12.6096,23.2758 C12.6076,23.2657 12.601,23.2593 12.5935,23.2578 Z M12.8584,23.1453 L12.8445,23.1473 L12.6598,23.2397 L12.6499,23.2499 L12.6472,23.2611 L12.6651,23.6906 L12.6699,23.7034 L12.6784,23.7105 L12.8793,23.8032 C12.8914,23.8069 12.9022,23.803 12.9078,23.7952 L12.9118,23.7812 L12.8777,23.1665 C12.8753,23.1546 12.8674,23.147 12.8584,23.1453 Z M12.143,23.1473 C12.1332,23.1424 12.1222,23.1453 12.1156,23.1526 L12.1099,23.1665 L12.0758,23.7812 C12.0751,23.7927 12.0828,23.8019 12.0926,23.8046 L12.1083,23.8032 L12.3092,23.7105 L12.3186,23.7024 L12.3225,23.6906 L12.3404,23.2611 L12.3372,23.2485 L12.3278,23.2397 L12.143,23.1473 Z"/><path fill="#09244B" d="M4,15 L4,14 L9,14 C9.55228,14 10,13.5523 10,13 C10,12.4477 9.55228,12 9,12 L3,12 C2.44772,12 2,12.4477 2,13 L2,15 C2,16.6569 3.34315,18 5,18 L6,18 L6,19.5 C6,20.5301 7.17596,21.118 8,20.5 L11.6,17.8 L10.4,16.2 L8,18 L8,17.5 C8,16.6716 7.32843,16 6.5,16 L5,16 C4.44772,16 4,15.5523 4,15 Z M4,9 C4,8.44772 4.44772,8 5,8 L7,8 C7.55228,8 8,8.44772 8,9 C8,9.55228 7.55228,10 7,10 L5,10 C4.44772,10 4,9.55228 4,9 Z M10,9 C10,8.44772 10.4477,8 11,8 L19,8 C19.5523,8 20,8.44772 20,9 C20,9.55228 19.5523,10 19,10 L11,10 C10.4477,10 10,9.55228 10,9 Z M2,6 C2,4.34315 3.34315,3 5,3 L18,3 C19.6569,3 21,4.34315 21,6 L21,7 L19,7 L19,6 C19,5.44772 18.5523,5 18,5 L5,5 C4.44772,5 4,5.44772 4,6 L4,7 L2,7 L2,6 Z M20.9892,13.8951 C21.3797,13.5046 21.3797,12.8714 20.9892,12.4809 C20.5986,12.0903 19.9655,12.0903 19.575,12.4809 L15.686,16.3699 L13.9211,14.605 C13.5305,14.2144 12.8974,14.2144 12.5068,14.605 C12.1163,14.9955 12.1163,15.6287 12.5068,16.0192 L14.9788,18.4912 C15.3694,18.8817 16.0025,18.8817 16.3931,18.4912 L20.9892,13.8951 Z"/></g></svg>

<svg xmlns="http://www.w3.org/2000/svg" width="24" height="24"><g fill="none"><path d="M24 0v24H0V0zM12.594 23.258l-.012.002-.071.035-.02.004-.014-.004-.071-.036c-.01-.003-.019 0-.024.006l-.004.01-.017.428.005.02.01.013.104.074.015.004.012-.004.104-.074.012-.016.004-.017-.017-.427c-.002-.01-.009-.017-.016-.018m.264-.113-.014.002-.184.093-.01.01-.003.011.018.43.005.012.008.008.201.092c.012.004.023 0 .029-.008l.004-.014-.034-.614c-.003-.012-.01-.02-.02-.022m-.715.002a.023.023 0 0 0-.027.006l-.006.014-.034.614c0 .012.007.02.017.024l.015-.002.201-.093.01-.008.003-.011.018-.43-.003-.012-.01-.01z"/><path fill="#09244B" d="M4 15v-1h5a1 1 0 1 0 0-2H3a1 1 0 0 0-1 1v2a3 3 0 0 0 3 3h1v1.5c0 1.03 1.176 1.618 2 1l3.6-2.7-1.2-1.6L8 18v-.5A1.5 1.5 0 0 0 6.5 16H5a1 1 0 0 1-1-1m0-6a1 1 0 0 1 1-1h2a1 1 0 0 1 0 2H5a1 1 0 0 1-1-1m6 0a1 1 0 0 1 1-1h8a1 1 0 1 1 0 2h-8a1 1 0 0 1-1-1M2 6a3 3 0 0 1 3-3h13a3 3 0 0 1 3 3v1h-2V6a1 1 0 0 0-1-1H5a1 1 0 0 0-1 1v1H2zm18.99 7.895a1 1 0 0 0-1.415-1.414l-3.889 3.889-1.765-1.765a1 1 0 1 0-1.414 1.414l2.472 2.472a1 1 0 0 0 1.414 0z"/></g></svg>
